X:1
T:Polska efter Janne Mårtensson
R:Polska
O:Kvällsträsk, Lappland
S:Efter Janne Mårtensson.
N:Slatta fra Westerbottn.
M:3/4
L:1/16
Q:130
K:G
|:G3F1 G2A2B2d2 | (3c2A2c2 B2G2 A2F2 | G2F2 G2A2B2^c2 | ^c2d2 d6 z2:|]: d3g g2d2 d2c2 | {Bc}B2A2 (3G2A2B2 {Bc}B2A2 :|]: GBdB GBdB GBdB | FAdA FAdA FAdA | GBdB GBdB GBdB | FAdA FAdA FAdA | G2F2 G2c2 B2A2 | GFEF G6 z2 :|]

